packages/foundations/assets/icons/functional/images/date & time/alarm_clock_plus_20.svg

<svg width="20" height="20" viewBox="0 0 20 20" fill="none" xmlns="http://www.w3.org/2000/svg">
<g clip-path="url(#clip0_185_648)">
<path fill-rule="evenodd" clip-rule="evenodd" d="M14.9365 2C16.3969 2 17.6349 3.17455 17.6349 4.66667C17.6349 5.61905 17.127 6.47614 16.3651 6.98408C16.7778 7.90476 17 8.92063 17 9.9683C17 11.6191 16.4604 13.1111 15.5397 14.3175L16.8413 16.4127C16.9389 16.57 17 16.7619 17 16.9524C17 17.5238 16.5873 17.9683 16.0159 17.9683C15.6984 17.9683 15.3906 17.8035 15.1905 17.4921L14.0477 15.7143C12.9048 16.5079 11.508 16.9841 10.0159 16.9841C8.52384 16.9841 7.12702 16.5079 5.98416 15.746L4.8413 17.5238C4.64107 17.8352 4.33337 18 4.0476 18C3.19051 18 2.77674 17.1105 3.19051 16.4445L4.49205 14.3492C3.60316 13.1429 3.03173 11.6191 3.03173 9.9683C3.03173 8.95243 3.254 7.93656 3.66665 7.01587C2.87305 6.50794 2.36511 5.61905 2.36511 4.69836C2.36511 3.20635 3.60316 2 5.03178 2C6.07935 2 7.06352 2.60323 7.50797 3.49211C8.33337 3.14286 9.09527 3.01587 10.0159 3.01587C10.9047 3.01587 11.6984 3.11116 12.5238 3.39683C13 2.53963 13.9207 2 14.9365 2ZM10.0462 4.98413C7.26763 4.98413 4.99998 7.25167 4.99998 10.0303C4.99998 12.809 7.26763 15.0765 10.0462 15.0765C12.8248 15.0765 15.0924 12.809 15.0924 10.0303C15.0924 7.25167 12.8248 4.98413 10.0462 4.98413ZM11 7L11 9H13V11H11L11 13H8.99997L9.00001 11H7.00001V9H9.00001L8.99997 7H11Z" fill="#1A1C1F"/>
</g>
<defs>
<clipPath id="clip0_185_648">
<rect width="20" height="20" fill="white"/>
</clipPath>
</defs>
</svg>

<svg xmlns="http://www.w3.org/2000/svg" width="20" height="20" fill="none"><g clip-path="url(#a)"><path fill="#1A1C1F" fill-rule="evenodd" d="M14.937 2c1.46 0 2.698 1.175 2.698 2.667 0 .952-.508 1.81-1.27 2.317.413.92.635 1.937.635 2.984 0 1.651-.54 3.143-1.46 4.35l1.301 2.095c.098.157.159.349.159.54 0 .57-.413 1.015-.984 1.015-.318 0-.625-.165-.825-.476l-1.143-1.778a7.07 7.07 0 0 1-4.032 1.27 7.3 7.3 0 0 1-4.032-1.238l-1.143 1.778c-.2.311-.508.476-.793.476-.857 0-1.271-.89-.857-1.555l1.301-2.096a7.4 7.4 0 0 1-1.46-4.38c0-1.017.222-2.032.635-2.953-.794-.508-1.302-1.397-1.302-2.318C2.365 3.206 3.603 2 5.032 2c1.047 0 2.032.603 2.476 1.492.825-.35 1.587-.476 2.508-.476.889 0 1.682.095 2.508.38A2.75 2.75 0 0 1 14.937 2m-4.89 2.984A5.057 5.057 0 0 0 5 10.03a5.057 5.057 0 0 0 5.046 5.047 5.057 5.057 0 0 0 5.046-5.047 5.057 5.057 0 0 0-5.046-5.046M11 7v2h2v2h-2v2H9v-2H7V9h2V7z" clip-rule="evenodd"/></g><defs><clipPath id="a"><path fill="#fff" d="M0 0h20v20H0z"/></clipPath></defs></svg>
